synths/sREN.svg

<svg width="42" height="42" viewBox="0 0 42 42" fill="none" xmlns="http://www.w3.org/2000/svg">
<g clip-path="url(#clip0_7277_57898)">
<mask id="mask0_7277_57898" style="mask-type:alpha" maskUnits="userSpaceOnUse" x="0" y="0" width="42" height="42">
<circle cx="21" cy="21" r="21" transform="matrix(-1 0 0 1 42 0)" fill="url(#paint0_linear_7277_57898)"/>
</mask>
<g mask="url(#mask0_7277_57898)">
<circle cx="21" cy="21" r="21" transform="matrix(-1 0 0 1 42 0)" fill="#34EDB3"/>
<circle cx="18.2" cy="18.2" r="18.2" transform="matrix(-1 0 0 1 39.2 2.80005)" fill="white"/>
</g>
<circle cx="16.1" cy="16.1" r="16.1" transform="matrix(-1 0 0 1 37.1 4.90002)" fill="#0B0B22"/>
<circle cx="21" cy="21" r="16.1" fill="black"/>
<path d="M14.0783 14.9317L13.8489 14.5554L11.0334 16.1754V15.9299L20.8373 10.2667L21.0486 10.3975L21.4934 10.6431L21.9341 10.9047L15.9268 14.3742L15.6984 13.9979L14.0783 14.9317ZM14.0783 18.4989L13.8489 18.1225L11.0334 19.7426V19.4799L23.9295 12.0508L24.1448 12.1816L24.5856 12.4261L25.0273 12.6878L19.0029 16.1593L18.7916 15.782L14.0783 18.4989V18.4989ZM14.0783 20.2819L13.8489 19.8915L11.0334 21.5257V21.266L25.469 12.9333L25.6804 13.0641L26.1251 13.3267L26.5659 13.5743L20.5414 17.0428L20.3301 16.6675L14.0783 20.2819V20.2819ZM14.0783 22.0509L13.8489 21.6746L11.0334 23.2946V23.0501L27.0076 13.8339L27.2189 13.9496L27.6617 14.2102L28.1044 14.4567L22.1313 17.9112L21.917 17.5329L14.0783 22.0509V22.0509ZM14.0783 23.834L13.8489 23.4587L11.0334 25.0787V24.8332L28.5462 14.7204L28.7766 14.8482L29.1992 15.0957L29.644 15.3573L23.6699 18.8118L23.4555 18.4184L14.0783 23.834V23.834ZM30.3121 15.7337L30.6402 15.9299V16.5689L23.6699 20.5778L23.4555 20.2014L14.0783 25.6181L13.8489 25.2417L11.0334 26.8618V26.6173L30.0857 15.6029L30.3121 15.7337V15.7337ZM12.2439 27.9435L12.0326 27.8127L30.6402 17.076V18.3348L23.6347 22.394L23.4072 22.0026L14.0461 27.4193L13.8157 27.0429L12.2439 27.9435ZM23.4072 23.7867L15.6148 28.2867L15.3874 27.9113L13.7835 28.8441L13.5722 28.7133L30.6402 18.8591V20.1209L23.6347 24.1801L23.4072 23.7867ZM15.322 29.7276L15.1077 29.5968L30.6402 20.6281V21.904L23.6347 25.9461L23.4072 25.5698L17.1534 29.1872L16.9421 28.7948L15.322 29.7276ZM16.8757 30.6101L16.6462 30.4974L30.6402 22.4112V23.6881L23.6347 27.7292L23.4072 27.3539L18.693 30.0707L18.4806 29.6944L16.8757 30.6101ZM18.1858 31.3799L30.6402 24.1952V25.4712L23.6347 29.5163L23.4072 29.1369L20.2315 30.9713L20.0202 30.5779L18.4152 31.5107L18.1858 31.3799V31.3799ZM19.9538 32.3942L19.7395 32.2805L30.6402 25.9783V27.2552L23.6347 31.2994L23.4072 30.9059L21.7852 31.8538L21.5588 31.4785L19.9538 32.3942V32.3942ZM23.4887 11.7882L17.4663 15.2597L17.252 14.8834L14.0783 16.7148L13.8489 16.3394L11.0334 17.9595V17.713L22.3758 11.1482L22.6053 11.279L23.047 11.5426L23.4887 11.7872V11.7882Z" fill="white"/>
</g>
<defs>
<linearGradient id="paint0_linear_7277_57898" x1="21" y1="0" x2="21" y2="61.4091" gradientUnits="userSpaceOnUse">
<stop stop-color="#08021E"/>
<stop offset="1" stop-color="#1F0777"/>
</linearGradient>
<clipPath id="clip0_7277_57898">
<rect width="42" height="42" fill="white"/>
</clipPath>
</defs>
</svg>

<svg xmlns="http://www.w3.org/2000/svg" width="42" height="42" fill="none"><g clip-path="url(#a)"><mask id="c" width="42" height="42" x="0" y="0" maskUnits="userSpaceOnUse" style="mask-type:alpha"><circle cx="21" cy="21" r="21" fill="url(#b)" transform="matrix(-1 0 0 1 42 0)"/></mask><g mask="url(#c)"><circle cx="21" cy="21" r="21" fill="#34EDB3" transform="matrix(-1 0 0 1 42 0)"/><circle cx="18.2" cy="18.2" r="18.2" fill="#fff" transform="matrix(-1 0 0 1 39.2 2.8)"/></g><circle cx="16.1" cy="16.1" r="16.1" fill="#0B0B22" transform="matrix(-1 0 0 1 37.1 4.9)"/><circle cx="21" cy="21" r="16.1" fill="#000"/><path fill="#fff" d="m14.078 14.932-.23-.377-2.815 1.62v-.245l9.804-5.663.212.13.444.246.441.262-6.007 3.47-.229-.377-1.62.934Zm0 3.567-.23-.377-2.815 1.62v-.262l12.897-7.43.215.132.44.244.442.262-6.024 3.471-.211-.377-4.714 2.717Zm0 1.783-.23-.39-2.815 1.634v-.26l14.436-8.333.211.131.445.263.44.247-6.024 3.469-.21-.375-6.253 3.614Zm0 1.769-.23-.376-2.815 1.62v-.245l15.975-9.216.21.116.444.26.442.247-5.973 3.454-.214-.378-7.839 4.518Zm0 1.783-.23-.375-2.815 1.62v-.246L28.546 14.72l.23.128.423.248.445.261-5.974 3.455-.215-.394-9.377 5.416Zm16.234-8.1.328.196v.639l-6.97 4.009-.215-.377-9.377 5.417-.23-.376-2.815 1.62v-.245l19.053-11.014.226.13Zm-18.068 12.21-.211-.131L30.64 17.076v1.259l-7.005 4.059-.228-.391-9.36 5.416-.231-.376-1.572.9Zm11.163-4.157-7.792 4.5-.228-.376-1.604.933-.21-.13 17.067-9.855v1.262l-7.005 4.06-.228-.394Zm-8.085 5.94-.214-.13 15.532-8.969v1.276l-7.005 4.042-.228-.376-6.254 3.617-.21-.392-1.621.933Zm1.554.883-.23-.113 13.994-8.086v1.277l-7.005 4.041-.228-.375-4.714 2.717-.212-.377-1.605.916Zm1.31.77 12.454-7.185v1.276l-7.005 4.045-.228-.38-3.175 1.835-.212-.393-1.605.933-.23-.131Zm1.768 1.014-.215-.113 10.901-6.303v1.277L23.635 31.3l-.228-.393-1.622.948-.226-.375-1.605.915Zm3.535-20.606-6.023 3.472-.214-.377-3.174 1.832-.23-.376-2.815 1.62v-.246l11.343-6.565.23.131.441.264.442.244v.001Z"/></g><defs><linearGradient id="b" x1="21" x2="21" y1="0" y2="61.409" gradientUnits="userSpaceOnUse"><stop stop-color="#08021E"/><stop offset="1" stop-color="#1F0777"/></linearGradient><clipPath id="a"><path fill="#fff" d="M0 0h42v42H0z"/></clipPath></defs></svg>
